X:176 
T:Preston's Reel 
B:CRE3.104 (RÃÂÃÂÃÂÃÂ­l PhreastÃÂÃÂÃÂÃÂºin)
F:file ID: cre.3/176prest
R:reel
L:1/8
Q:180
M:C
K:G
GBB2 G2AG|FAA2 FADF|GBB2 GBd2|1 (3efg af gedB:|\
[2 (3efg af gdef||
gbb2 faa2|agef ged2|gbb2 faa2|agef gdef|
gbb2 faa2|agef gedg|(3bag af gfed|efaf gedB||

%%%

